X: 8209
T: Coomb's Cove
R: polka
M: 2/4
K: Dmajor
|:fg/f/ ef|Ac BA|ef ge|Bc BA|
fg/f/ ef|Ac BA|e>f ge|Bc de:|
|:fg/f/ ef|ge c2|ef/e/ de|fe de|
fg/f/ ef|ge c2|e>f ge|Bc de:|

